X:1
T:Colchester (Williams), CM
T:Colchester (Williams), CM
T:Aaron Williams (1731-1776)
T:Public Domain Courtesy of the Cyber Hymnal™
C:Aaron Williams (1731-1776)
Z:Public Domain
Z:Courtesy of the Cyber Hymnal™
%%score ( 1 2 ) ( 3 4 )
L:1/8
Q:1/4=112
M:3/4
K:D
V:1 treble 
V:2 treble 
V:3 bass 
V:4 bass 
V:1
 [Fd]2 | (d3 c) [GB]2 | A4 [EG]2 | ([DF]3 [CE]) D2 | [CA]4 [DA]2 | ([DB]3 [Ec]) [Fd]2 | %6
 [Ge]4 [Ec]2 | [Fd]4 [FA]2 | ([EG]2 [DF]2) [CE]2 | D4 [EA]2 | (d3 c) [^GB]2 | A4 A2 | %12
 (d3 e) [Af]2 | ([Ge]2 [Fd]2) [Ec]2 | [Fd]4 |] %15
V:2
 x2 | F4 x2 | (A2 D2) x2 | x4 D2 | x6 | x6 | x6 | x6 | x6 | D4 x2 | F4 x2 | A4 A2 | A4 x2 | x6 | %14
 x4 |] %15
V:3
 [D,A,]2 | [D,A,]4 (B,C) | [F,D]4 [C,A,]2 | (A,3 G,) [D,F,]2 | [A,,E,]4 [F,A,]2 | G,4 [F,A,]2 | %6
 [E,B,]4 [A,,A,]2 | [D,A,]4 [D,A,]2 | A,4 [G,A,]2 | [F,A,]4 [C,E]2 | [B,,D]4 [E,D]2 | %11
 [A,,C]4 [A,C]2 | [F,D]4 [D,D]2 | ([G,B,]2 A,2) [A,,A,]2 | [D,A,]4 |] %15
V:4
 x2 | x4 E,2 | x6 | D,4 x2 | x6 | G,4 x2 | x6 | x6 | (C,2 D,2) x2 | x6 | x6 | x6 | x6 | x2 A,2 x2 | %14
 x4 |] %15

